X: 26037
T: Mazurka La Pleau
R: mazurka
M: 3/4
K: Gmajor
|:D>G|B2 B>d B>G|B2 B>d B>G|A2 A>c B>A|B2 G2 D>G|
B2 B>d B>G|B2 B>d B>G|A2 A>c B>A|G4:|
|:d>B|G2 G>B d>B|c2 A2 c>A|F>F F>A c>A|B4 d>B|
G2 G>B d>B|c2 A2 c>A|F>F F>c A>F|G4:|

